icons/money-cny-box-line.svg

<svg viewBox="0 0 24 24" fill="currentColor" xmlns="http://www.w3.org/2000/svg"><path d="M3.00488 3.00275H21.0049C21.5572 3.00275 22.0049 3.45046 22.0049 4.00275V20.0027C22.0049 20.555 21.5572 21.0027 21.0049 21.0027H3.00488C2.4526 21.0027 2.00488 20.555 2.00488 20.0027V4.00275C2.00488 3.45046 2.4526 3.00275 3.00488 3.00275ZM4.00488 5.00275V19.0027H20.0049V5.00275H4.00488ZM13.0049 13.0027H16.0049V15.0027H13.0049V17.0027H11.0049V15.0027H8.00488V13.0027H11.0049V12.0027H8.00488V10.0027H10.5907L8.46935 7.88143L9.88356 6.46721L12.0049 8.58853L14.1262 6.46721L15.5404 7.88143L13.4191 10.0027H16.0049V12.0027H13.0049V13.0027Z"/></svg>

<svg xmlns="http://www.w3.org/2000/svg" viewBox="0 0 24 24">
    <g>
        <path fill="none" d="M0 0h24v24H0z"/>
        <path d="M3 3h18a1 1 0 0 1 1 1v16a1 1 0 0 1-1 1H3a1 1 0 0 1-1-1V4a1 1 0 0 1 1-1zm1 2v14h16V5H4zm9 8h3v2h-3v2h-2v-2H8v-2h3v-1H8v-2h2.586L8.464 7.879 9.88 6.464 12 8.586l2.121-2.122 1.415 1.415L13.414 10H16v2h-3v1z"/>
    </g>
</svg>
